!!!OTL: 54. Vaterlandsruf.
!!!COM: Volksweise
!!!ODT: 1813
!!!ARE: Europa, Mitteleuropa, Deutschland
!!!SCT: B0054
!!!TXL: @@DE
!!!YEM: Copyright 1995, estate of Helmut Schaffrath.
**kern	**text
*ICvox	*
*Ivox	*
*M4/4	*
*met(c)	*
*clefG2	*
*k[f#]	*
*G:	*
!LO:TX:a:t=Schrittmäßig, kräftig.	!
{8d	Hinaus,
8.e	.
16f#	hi-
=1	=1
4.g	-naus!
8g	Es
8.g	ruft
16a	das
8.b	Va-
16cc	-ter-
=2	=2
2dd	-land:
8r}	.
{8dd	Eilt,
8.ee	Männer,
16dd	.
=3	=3
4.cc	eilt
8a	ʒu
8.b	kämpfen
16g	.
8.dd	und
16b	ʒu
=4	=4
8.aL	ſie-
16bJ	.
4a	-gen:
8r}	.
{8d	im
8.b	Glau-
16a	-ben
=5	=5
4.g	ſtark
8f#	be-
8.g	-waff-
16a	-net
8.b	eu-
16cc#	-re
=6	=6
2dd	Hand!
8r}	.
{8a	Jhr
8a	dürft
8a	nicht
=7	=7
4.ff#	prunken,
8dd	.
4a	nicht
8.bL	er-
16cc#J	.
=8	=8
4ee^	-lie-
4dd	-gen.
8r}	.
{8dd	Jhr
8.ee	ſtrei-
16dd	-tet
=9	=9
4.ccn	nicht
8a	um
8.b/	Eh-
16g	-re,
8.dd	Ruhm
16b	und
=10	=10
2a	Gold:
8r}	.
{8dd	das
8.ee	deutſche
16dd	.
=11	=11
4.cc	Recht
8a	er-
8.b	-kämpfet
16g	.
8.dd	ihr
16b	euch
=12	=12
8.aL	wie-
16bJ	.
4a	-der,
8r}	.
{8d	und
8.b/	deutſche
16a	.
=13	=13
8.g	Freiheit,
16d	.
8.b/	deutſche
16a	.
8.g	Treue,
16b	.
8.ee	deut-
16dd	-ſche
=14	=14
(4.cc	Lie-
8b)	.
8a}	-der
{8a	er-
8.dd	-war-
16cc	-ten
=15	=15
4.b	euch
8b	als
8.a	eu-
16g	-er
8.a	ſchön-
16b	-ſter
=16	=16
2g	Sold.
8r}	.
{8d	und
8.b/	deutſche
16a	.
=17	=17
8.g	Freiheit,
16d	.
8.b/	deutſche
16a	.
8.g	Treue,
16b	.
8.ee	deut-
16dd	-ſche
=18	=18
(4.cc	Lie-
8b)	.
8a}	-der
{8a	er-
8.dd	-war-
16cc	-ten
=19	=19
4.b	euch
8b	als
8.a	eu-
16g	-er
8.a	ſchön-
16b	-ſter
=20	=20
2g	Sold.
8r}	.
==	==
!!!AGN: Kriegs -, Sieges -, Soldaten - Lied
!!!GTL: Kriegs- und Siegeslieder
!!!ONB: ESAC (Essen Associative Code) Database: BOEHME
!!!AMT: simple quadruple
!!!AIN: vox
!!!EED: Helmut Schaffrath
!!!EEV: 1.0
!!@@COMMENT:"Lied aus dem Jahre 1813 (nach der Schlacht bei Leipʒig ʒur Fortſetʒung des Freiheitskampfes
!!aufmunternd. Verfaſſer unbekannt. Die Melodie wurde ſonſt gar Moʒart ʒugeſchrieben; doch alte
!!Muſikkenner Marſchner, Erk rc. ) nennen ſie Volksweiſe, die erſt durch nachfolgendes Lied ʒur Feier
!!des 18. Juni 1821 recht bekannt wurde."
!!@@END:
!!!URL-scan: https://archive.org/details/BoehmeVtLieder1895/page/n69/mode/2up
!!!ENC: Anna Maria Matuszewska
!!!EEV: 2024/14/06
*-	*-
